assets/logo.svg

<svg width="255" height="403" viewBox="0 0 255 403" fill="none" xmlns="http://www.w3.org/2000/svg">
    <path
        d="M127.445 2.91959C127.445 8.05151 129.448 22.2476 131.185 29.2457C136.527 50.9063 146.612 66.0355 163.174 77.0325C167.782 80.0983 182.741 88.0294 183.876 88.0294C185.145 88.0294 197.366 94.6943 202.375 98.16C226.951 114.955 243.847 139.615 251.06 169.007C254.666 183.936 255 189.801 255 239.388C255 285.508 254.733 292.573 252.262 305.503C245.25 343.159 218.937 375.883 182.541 392.146C153.557 405.142 115.224 406.542 83.1679 395.945C44.5007 383.081 13.9142 350.424 3.89677 311.301C0.290512 297.172 0.357285 299.171 0.0901642 243.986C-0.110184 210.062 0.0233765 190.068 0.49086 185.803C4.29747 151.212 20.7928 121.354 47.1052 101.626C54.1842 96.2939 61.1964 92.3616 71.7481 87.6962C86.5739 81.1647 94.7213 75.9661 102.669 67.9683C116.359 54.1721 123.905 34.1776 125.909 6.11871C126.31 -0.0129395 127.445 -2.34564 127.445 2.91959ZM134.39 102.959C134.925 105.025 137.195 105.291 137.796 103.425C138.264 101.959 136.995 85.6301 136.327 84.0305C135.726 82.631 133.856 100.893 134.39 102.959ZM150.418 89.8956C151.286 90.6954 151.62 89.2958 151.086 86.8964L150.552 84.3638L150.285 86.9631C150.151 88.3627 150.218 89.6956 150.418 89.8956ZM117.494 92.8281C117.427 93.8945 117.695 94.6943 118.095 94.6943C118.496 94.6943 118.763 93.0947 118.696 91.1619C118.63 88.4294 118.496 88.0294 118.095 89.3624C117.828 90.2955 117.561 91.8284 117.494 92.8281ZM83.7022 105.891C83.9025 106.758 84.37 107.224 84.7039 107.024C85.5053 106.558 85.5721 102.825 84.9043 99.0264L84.4368 96.3605L83.9025 100.359C83.5686 102.559 83.5018 105.025 83.7022 105.891ZM174.594 104.025C174.326 107.624 174.393 109.89 174.927 110.823C175.595 112.089 175.729 112.089 176.33 111.156C176.998 109.89 176.33 98.6932 175.529 98.6932C175.261 98.6932 174.861 101.093 174.594 104.025ZM106.742 112.423C99.2626 113.956 90.5808 117.088 82.7004 121.087C62.4653 131.418 47.3056 148.946 40.6273 169.874C36.6203 182.204 36.5536 183.603 36.7539 242.987C36.8875 287.175 37.0878 296.639 37.8224 295.039C38.2899 294.039 40.093 289.974 41.8962 286.042C43.6993 282.176 54.1842 259.182 65.2034 234.989C76.2225 210.796 88.4438 183.936 92.3839 175.339C100.264 158.143 120.7 112.889 121.301 111.423C121.568 110.623 120.767 110.557 116.693 110.956C113.955 111.223 109.48 111.89 106.742 112.423ZM149.483 179.471V246.319L153.023 238.321C155.026 233.923 163.24 215.794 171.321 197.999C193.493 149.413 196.899 141.881 196.899 141.348C196.899 141.082 194.628 138.682 191.89 135.95C182.808 127.019 170.386 119.621 156.629 115.022C152.889 113.756 149.75 112.689 149.617 112.689C149.55 112.689 149.483 142.748 149.483 179.471ZM40.6941 134.683C40.6941 135.95 40.9612 137.483 41.2951 138.016C41.8962 138.882 42.0297 138.882 42.564 138.016C43.2318 137.083 43.0983 134.683 42.1633 128.018L41.6958 125.019L41.2283 128.685C40.9612 130.684 40.7609 133.417 40.6941 134.683ZM208.452 132.484C208.653 133.15 208.786 132.617 208.786 131.351C208.786 130.085 208.653 129.551 208.452 130.151C208.319 130.818 208.319 131.884 208.452 132.484ZM134.791 138.082C134.791 142.081 134.991 143.414 135.592 143.148C136.461 142.881 136.461 142.481 136.26 136.016C136.06 130.418 134.791 132.217 134.791 138.082ZM123.238 161.143C123.438 162.009 123.839 162.676 124.173 162.676C124.907 162.676 124.974 159.343 124.306 155.677L123.839 153.012L123.371 156.344C123.104 158.143 123.037 160.343 123.238 161.143ZM233.229 170.673C232.828 177.471 232.895 178.471 233.897 179.271C234.898 180.137 235.166 180.137 235.7 179.271C236.368 178.338 236.1 170.74 235.166 162.876C234.765 159.343 234.698 159.21 234.164 161.009C233.897 162.076 233.429 166.475 233.229 170.673ZM19.19 172.206C18.6558 177.805 18.6558 180.271 19.2568 181.27C20.1918 183.003 21.06 183.07 21.5942 181.337C21.9949 180.004 20.6593 163.742 20.125 164.208C19.9914 164.342 19.5907 167.941 19.19 172.206ZM206.916 172.14C206.916 173.872 207.184 175.472 207.584 175.672C207.985 175.939 208.252 174.406 208.252 171.54C208.252 168.341 208.052 167.341 207.584 168.007C207.25 168.541 206.916 170.407 206.916 172.14ZM103.47 197.599C102.802 205.797 103.336 209.329 105.139 209.329C107.21 209.329 107.61 206.464 106.809 197.199C106.342 192.334 105.807 187.135 105.607 185.669L105.139 183.003L104.605 186.336C104.338 188.202 103.871 193.267 103.47 197.599ZM215.197 192.001C213.661 195.467 207.25 209.596 201.04 223.326C161.771 309.968 137.462 364.087 137.462 364.953C137.462 365.686 146.278 364.886 152.488 363.62C185.613 356.755 210.99 332.162 217.668 300.304C218.804 294.706 218.937 290.507 218.937 239.988C218.937 179.804 219.004 183.27 218.47 184.67C218.269 185.203 216.8 188.535 215.197 192.001ZM196.966 194.134C196.899 197.733 197.099 198.666 197.901 198.666C198.702 198.666 198.902 197.733 198.902 194.134C198.902 191.668 198.702 188.468 198.435 187.002L197.968 184.336L197.5 187.002C197.166 188.468 196.966 191.668 196.966 194.134ZM130.784 206.397C129.983 216.128 130.317 218.66 132.387 218.66C134.324 218.66 134.524 215.728 133.322 203.464C132.921 198.932 132.32 195.666 132.12 196.133C131.853 196.6 131.252 201.265 130.784 206.397ZM241.911 210.996C242.111 211.529 242.578 211.995 242.979 211.995C243.78 211.995 243.847 209.463 243.179 204.931L242.712 201.665L242.111 205.864C241.777 208.13 241.71 210.462 241.911 210.996ZM11.4432 206.13C11.5768 206.997 11.7104 206.464 11.7104 204.997C11.7771 203.531 11.6436 202.864 11.4432 203.464C11.3097 204.131 11.3097 205.33 11.4432 206.13ZM24.9333 223.992C24.5327 230.457 24.5994 231.856 25.5344 232.99C26.6029 234.322 26.6029 234.322 27.6047 233.056C28.8067 231.523 28.8735 229.191 27.9386 219.926C27.0036 210.329 26.5361 208.73 25.8683 212.995C25.6012 214.795 25.2005 219.793 24.9333 223.992ZM188.885 218.46C188.885 220.993 189.085 222.059 189.553 221.593C190.154 220.993 189.753 214.661 189.152 214.661C189.019 214.661 188.885 216.394 188.885 218.46ZM175.729 220.793C175.862 221.659 175.996 220.993 175.996 219.327C175.996 217.66 175.862 216.994 175.729 217.794C175.595 218.66 175.595 219.993 175.729 220.793ZM236.835 231.123C236.635 236.855 236.902 237.722 238.705 237.055C239.707 236.655 239.774 235.855 239.373 230.457C239.106 227.124 238.705 223.126 238.505 221.659L238.037 218.993L237.503 222.326C237.236 224.125 236.902 228.124 236.835 231.123ZM121.434 225.725C121.434 227.324 121.702 228.657 122.102 228.657C122.436 228.657 122.77 227.124 122.77 225.258C122.77 223.192 122.503 222.059 122.102 222.326C121.702 222.526 121.434 224.059 121.434 225.725ZM83.4351 246.652C83.3683 252.318 83.9025 253.984 85.7725 253.984C87.3752 253.984 87.9763 250.251 87.3085 243.187C86.6406 235.056 86.1064 230.923 85.5721 228.657C84.9711 226.458 83.5018 239.055 83.4351 246.652ZM98.0605 256.983C86.1732 283.309 67.2736 325.164 64.2684 331.896L62.3985 336.161L68.4757 342.026C79.2945 352.49 91.0483 358.888 107.878 363.62L109.414 364.02V298.238C109.414 262.048 109.28 232.59 109.146 232.723C109.013 232.856 104.004 243.787 98.0605 256.983ZM167.982 245.719C167.581 250.785 168.45 253.384 170.186 252.318C170.854 251.918 170.92 249.985 170.587 243.853C169.852 231.123 169.051 231.657 167.982 245.719ZM11.9107 245.653C11.9107 247.652 12.1778 249.318 12.5785 249.318C13.3131 249.318 13.4467 247.119 12.8457 244.053C12.2446 240.987 11.9107 241.52 11.9107 245.653ZM127.712 259.316C127.311 265.914 127.445 267.113 128.313 267.913C130.584 269.713 130.984 268.18 130.517 260.049C130.317 255.783 129.916 251.118 129.649 249.652L129.181 246.986L128.714 249.318C128.38 250.585 127.979 255.117 127.712 259.316ZM231.826 255.45C232.027 255.983 232.227 255.783 232.227 255.05C232.294 254.317 232.094 253.917 231.893 254.184C231.693 254.384 231.626 254.983 231.826 255.45ZM75.2208 266.247C76.3561 268.646 76.8904 265.914 76.2893 260.782L75.755 256.316L75.154 260.582C74.7533 263.314 74.7533 265.314 75.2208 266.247ZM19.4572 262.781C19.6575 263.248 19.7911 262.915 19.7911 261.982C19.7911 261.048 19.6575 260.715 19.4572 261.115C19.3236 261.582 19.3236 262.381 19.4572 262.781ZM154.759 270.512C155.627 272.045 155.961 270.579 155.56 266.647L155.227 262.981L154.759 266.247C154.492 268.113 154.492 269.979 154.759 270.512ZM9.64009 277.311C9.2394 281.909 9.37296 283.242 10.1744 284.309C11.1093 285.442 11.3097 285.508 11.9107 284.642C12.6453 283.642 12.3782 275.311 11.3764 268.646L10.9758 265.647L10.5083 268.646C10.3079 270.313 9.84044 274.178 9.64009 277.311ZM151.487 290.04C151.487 294.772 152.088 296.439 153.089 294.706C153.691 293.773 152.689 283.975 152.088 284.375C151.754 284.575 151.487 287.108 151.487 290.04ZM65.5373 286.775C65.7376 287.308 65.938 287.108 65.938 286.375C66.0048 285.642 65.8044 285.242 65.604 285.508C65.4037 285.708 65.3369 286.308 65.5373 286.775ZM125.642 288.774C125.842 289.307 126.042 289.107 126.042 288.374C126.109 287.641 125.909 287.241 125.709 287.508C125.508 287.708 125.441 288.308 125.642 288.774ZM232.628 311.168C233.028 312.901 233.095 312.967 234.03 311.634C234.631 310.768 234.898 309.435 234.698 307.969C234.498 306.703 234.164 303.837 233.897 301.637L233.362 297.638L232.761 303.503C232.427 306.769 232.361 310.235 232.628 311.168ZM20.6593 302.77C20.5925 303.77 20.8596 304.77 21.2603 304.97C21.661 305.236 21.9281 303.903 21.8613 301.504C21.7946 298.571 21.661 298.038 21.2603 299.305C20.9932 300.238 20.726 301.771 20.6593 302.77ZM134.991 303.104C135.192 303.77 135.325 303.237 135.325 301.97C135.325 300.704 135.192 300.171 134.991 300.771C134.858 301.437 134.858 302.504 134.991 303.104ZM50.3776 310.835C50.5779 311.501 51.1122 311.901 51.5129 311.768C52.3811 311.501 52.3143 305.436 51.4461 301.637C51.1122 300.038 50.9118 300.704 50.5112 304.636C50.244 307.369 50.1772 310.168 50.3776 310.835ZM145.677 312.768C145.81 313.634 145.944 313.101 145.944 311.634C146.011 310.168 145.877 309.502 145.677 310.102C145.543 310.768 145.543 311.968 145.677 312.768ZM42.6308 323.098C42.6308 325.897 42.8311 326.697 43.3654 326.164C44.1 325.431 43.6993 319.299 42.8979 319.299C42.7643 319.299 42.6308 321.032 42.6308 323.098ZM220.473 328.097C220.674 328.563 220.807 328.23 220.807 327.297C220.807 326.364 220.674 326.031 220.473 326.43C220.34 326.897 220.34 327.697 220.473 328.097ZM126.109 333.695C126.109 337.961 126.31 339.36 126.911 339.094C127.512 338.894 127.712 337.561 127.578 334.895C127.245 326.43 126.109 325.564 126.109 333.695ZM137.462 332.362C137.462 333.962 137.729 335.295 138.13 335.295C138.464 335.295 138.798 333.762 138.798 331.896C138.798 329.829 138.531 328.696 138.13 328.963C137.729 329.163 137.462 330.696 137.462 332.362ZM29.2742 337.894C29.2742 342.226 30.0088 344.425 30.8102 342.359C31.3445 341.026 30.5431 333.295 29.8753 333.295C29.5414 333.295 29.2742 335.361 29.2742 337.894ZM217.201 351.157C218.069 351.957 218.336 350.624 217.802 348.224L217.268 345.625L217.067 348.224C216.934 349.624 217.001 350.957 217.201 351.157ZM53.6499 363.154C53.8503 364.02 54.3846 364.553 54.852 364.42C55.7202 364.153 55.7202 358.222 54.852 353.956C54.4513 351.89 54.3178 352.223 53.8503 356.622C53.5164 359.355 53.4496 362.287 53.6499 363.154ZM187.483 363.354C186.614 372.618 186.882 375.284 188.818 375.284C190.621 375.284 190.822 373.617 190.087 364.487C189.085 351.623 188.685 351.424 187.483 363.354ZM72.1488 374.884C72.2823 377.083 72.6162 378.949 73.0169 378.949C73.9519 378.949 74.219 375.084 73.618 369.285L73.1505 364.287L72.5495 367.552C72.2155 369.352 72.0152 372.618 72.1488 374.884ZM162.172 383.748C162.172 385.547 162.439 386.614 162.773 386.214C163.307 385.681 163.04 380.615 162.439 380.615C162.306 380.615 162.172 382.015 162.172 383.748ZM92.3172 388.48C93.2521 389.346 93.4525 387.747 92.985 384.481L92.3839 380.949L92.1836 384.548C92.05 386.481 92.1168 388.28 92.3172 388.48ZM141.67 391.413C141.87 391.946 142.07 391.746 142.07 391.013C142.137 390.279 141.937 389.88 141.736 390.146C141.536 390.346 141.469 390.946 141.67 391.413Z"
        fill="#00A8C6" />
</svg>

<svg width="255" height="403" xmlns="http://www.w3.org/2000/svg" xmlns:svg="http://www.w3.org/2000/svg">
    <g class="layer">
        <title>Layer 1</title>
        <path
            d="m127.44,2.92c0,5.13 2.01,19.33 3.75,26.33c5.34,21.66 15.42,36.79 31.98,47.78c4.61,3.07 18.82,10 20.71,11c1.89,1 13.49,6.66 18.5,10.13c24.57,16.79 41.47,41.46 48.68,70.85c3.61,14.93 3.94,20.79 3.94,70.38c0,46.12 -0.27,53.18 -2.74,66.11c-7.01,37.66 -33.32,70.38 -69.72,86.65c-28.98,12.99 -67.32,14.39 -99.37,3.79c-38.67,-12.86 -69.26,-45.52 -79.27,-84.64c-3.61,-14.13 -3.54,-12.13 -3.81,-67.31c-0.2,-33.93 -0.07,-53.92 0.4,-58.19c3.81,-34.59 20.3,-64.45 46.62,-84.17c7.07,-5.34 14.09,-9.27 24.64,-13.93c14.82,-6.54 22.97,-11.73 30.92,-19.73c13.69,-13.8 21.24,-33.79 23.24,-61.85c0.4,-6.13 1.53,-8.47 1.53,-3.2zm-20.7,109.5c-7.48,1.54 -16.16,4.67 -24.04,8.67c-20.23,10.33 -35.39,27.86 -42.07,48.78c-4.01,12.33 -4.08,13.73 -3.88,73.12c0.14,44.19 0.34,53.65 1.07,52.05c0.47,-1 2.27,-5.07 4.08,-9c1.8,-3.86 12.28,-26.86 23.3,-51.05c11.02,-24.19 23.24,-51.05 27.18,-59.65c7.88,-17.2 28.32,-62.45 28.92,-63.92c0.27,-0.8 -0.53,-0.86 -4.61,-0.46c-2.74,0.26 -7.21,0.93 -9.95,1.46zm42.74,67.05l0,66.85l3.54,-8c2.01,-4.4 10.22,-22.53 18.3,-40.32c22.17,-48.59 25.58,-56.12 25.58,-56.65c0,-0.27 -2.27,-2.67 -5.01,-5.4c-9.08,-8.93 -21.5,-16.33 -35.26,-20.93c-3.74,-1.26 -6.88,-2.33 -7.01,-2.33c-0.07,0 -0.14,30.06 -0.14,66.78zm65.72,12.53c-1.54,3.47 -7.95,17.6 -14.16,31.33c-39.27,86.64 -63.58,140.76 -63.58,141.62c0,0.74 8.82,-0.06 15.03,-1.33c33.12,-6.87 58.5,-31.46 65.18,-63.32c1.13,-5.59 1.27,-9.79 1.27,-60.31c0,-60.19 0.06,-56.72 -0.47,-55.32c-0.2,0.53 -1.67,3.86 -3.27,7.33zm-117.14,64.98c-11.89,26.33 -30.79,68.18 -33.79,74.92l-1.87,4.26l6.08,5.87c10.81,10.46 22.57,16.86 39.4,21.59l1.53,0.4l0,-65.78c0,-36.19 -0.13,-65.65 -0.26,-65.52c-0.14,0.14 -5.15,11.07 -11.09,24.26z"
            fill="#00A8C6" id="svg_1" />
    </g>
</svg>
